X:1
T:Ship in the Sky
M:4/4
L:1/8
K:C
 G| AA GG E2 CC| F2 FF F2 EE| D2 DD G2 GG| A2 GG| E4-| E6 GG| G2 GE C2 DE|\
 F2 FF A4| B2 BG A2 G2| F2 ED C4-| C8| A2 GG E2 C2| F2 FF A4| G2 GG A2 G2|\
 G2 DD D4| AA GG E2 C2| F2 FF A3 A| B2 BG A2 G2| F2 ED C4-| C6||
